!!! OTL: Literature148
!!! Chapter: 5
!!! Section: IV
!!! Page: 380
!!! Mode: 
!!! Encoder: DJB
**kern
*staff1
*I"Piano
=1-
*clefG2
*k[f#c#g#d#]
*g#:
*M4/4
4r
4r
4r
4g#/
=2
[4ee\
16ee\LL]
16cc#\
16g#\
16ee\JJ
12dd#\L
12b\
12g#\J
4dd#\
=3
4cc#\
24dd#\LL
24cc#\
24b\
24a\
24b\
24cc#\JJ
4b\
8g#/
8r
=4
16a\LL
16b\
16cc#\
16cc#\JJ
8b/L
8a/J
12g#/L
12e/
12g#/J
8ee\L
8ee\J
=5
4dd#\
8cc#\L
24b\L
24cc#\
24a\JJ
4g#/
8g#/
8r
=6
!!linebreak:original
2ee\
4dd#\
4b\
=7
8ddn\L
8ccn\J
16f#/LL
16g#/
16a/
16cc/JJ
8b\L
8ee\
8dd\
8cc\J
=8
4ee\
8ee\
8r
4ffn\
8cc#\L
8dd#\J
=9
4ee\
8ee\
8r
8dd#\L
8ccn\
8b\
8a\J
=10
4ddn\
8dd\L
8dd\J
8dd\L
8ccn\
8b\
8a\J
=11
4.b\
8ccn\
4b\
8e/
8r
=12
!!linebreak:original
[4ee\
16ee\LL]
16cc#\
16g#\
16ee\JJ
12dd#\L
12b\
12g#\J
4dd#\
=13
4cc#\
24dd#\LL
24cc#\
24b\
24a\
24b\
24cc#\JJ
4b\
8g#/
8r
=14
16a\LL
16b\
16cc#\
16cc#\JJ
8b/L
8a/J
12g#/L
12e/
12g#/J
8ee\L
8ee\J
=15
8dd#\L
8ee\
8dd#\
8cc#\J
2g#/
==
*-
